!!!COM: Bach, Johann Sebastian
!!!OTL: Fuga
!!!OMV: 2
!!!SCT: BWV 538
!!!SCA: Thematisches-systematisches Verzeichnis der musikalischen Werke von Johann Sebastian Bach (Schmieder 1990)
**kern	**kern	**kern	**kern
*MM60	*MM60	*MM60	*MM60
*k[]	*k[]	*k[]	*k[]
*M2/2	*M2/2	*M2/2	*M2/2
*tb32	*tb32	*tb32	*tb32
=1	=1	=1	=1
1r	1r	2d	1r
.	.	2e	.
=2	=2	=2	=2
1r	1r	4f	1r
.	.	4d	.
.	.	[2g	.
=3	=3	=3	=3
1r	1r	4g]	1r
.	.	4f	.
.	.	[2b-	.
=4	=4	=4	=4
1r	1r	4b-]	1r
.	.	4a	.
.	.	[2dd	.
=5	=5	=5	=5
1r	1r	4dd]	1r
.	.	2cc	.
.	.	[4b-	.
=6	=6	=6	=6
1r	1r	4b-]	1r
.	.	2a	.
.	.	[4g	.
=7	=7	=7	=7
1r	1r	4g]	1r
.	.	4f	.
.	.	2eT	.
=8	=8	=8	=8
1r	1r	4d	2a
.	.	4c	.
.	.	4d	2b
.	.	4e	.
=9	=9	=9	=9
1r	1r	4A	4cc
.	.	8a	4a
.	.	8g	.
.	.	4f	[2dd
.	.	8e	.
.	.	8d	.
=10	=10	=10	=10
1r	1r	4e	4dd]
.	.	4A	4cc
.	.	4a	[2ff
.	.	8g	.
.	.	8f	.
=11	=11	=11	=11
1r	1r	4g	4ff]
.	.	4c	4ee
.	.	4cc	[2aa
.	.	8b	.
.	.	8a	.
=12	=12	=12	=12
1r	1r	8b	4aa]
.	.	8cc	.
.	.	8b	2gg
.	.	8ee	.
.	.	8a	.
.	.	8b	.
.	.	8a	[4ff
.	.	8dd	.
=13	=13	=13	=13
1r	1r	8g	4ff]
.	.	8a	.
.	.	8g	2ee
.	.	8cc	.
.	.	2f	.
.	.	.	[4dd
=14	=14	=14	=14
1r	1r	4e	4dd]
.	.	2a	4cc
.	.	.	2bT
.	.	4g#	.
=15	=15	=15	=15
1r	1r	2.a	4a
.	.	.	4cc
.	.	.	[2ff
.	.	8g	.
.	.	8f	.
=16	=16	=16	=16
1r	1r	4g	4ff]
.	.	4c	8ee
.	.	.	8dd
.	.	[2f	4ee
.	.	.	4a
=17	=17	=17	=17
1r	1r	4f]	2.dd
.	.	8e	.
.	.	8d	.
.	.	4e	.
.	.	4A	4cc#
=18	=18	=18	=18
1r	2D	2.d	8dd
.	.	.	8cc
.	.	.	8b-
.	.	.	8a
.	2E	.	4g
.	.	4c#	8f
.	.	.	8e
=19	=19	=19	=19
1r	4F	2.d	4a
.	4D	.	8dd
.	.	.	8cc
.	[2G	.	4b-
.	.	4e	8a
.	.	.	8g
=20	=20	=20	=20
1r	4G]	2.f	4a
.	4F	.	4d
.	[2B-	.	4dd
.	.	4g	8cc
.	.	.	8b-
=21	=21	=21	=21
1r	4B-]	2.a	4cc
.	4A	.	4f
.	[2d	.	4ff
.	.	4b-	8ee
.	.	.	8dd
=22	=22	=22	=22
1r	4d]	4g	8ee
.	.	.	8ff
.	2c	8a	8ee
.	.	8e	8aa
.	.	4f	8dd
.	.	.	8ee
.	[4B-	8g	8dd
.	.	8d	8gg
=23	=23	=23	=23
1r	4B-]	4e	8cc
.	.	.	8dd
.	2A	8f	8cc
.	.	8c	8ff
.	.	8d	2b-
.	.	8f	.
.	[4G	8e	.
.	.	8g	.
=24	=24	=24	=24
1r	4G]	4c#	4a
.	4F	4a	2dd
.	2ET	4g	.
.	.	8f	4cc#
.	.	8e	.
=25	=25	=25	=25
1r	2D	4.f	4dd
.	.	.	2ff
.	.	8g	.
.	[2d	4a	.
.	.	4b-	8ee
.	.	.	8dd
=26	=26	=26	=26
1r	4d]	2.g	2.ee
.	4G	.	.
.	[2c	.	.
.	.	8f	8dd
.	.	8e	8cc
=27	=27	=27	=27
1r	4c]	2f	4dd
.	8B	.	4g
.	8A	.	.
.	4B	[2e	[2cc
.	4E	.	.
=28	=28	=28	=28
1r	2.A	4e]	4cc]
.	.	8d	8b
.	.	8c	8a
.	.	2d	4b
.	4G#	.	[4e
=29	=29	=29	=29
2AA	2A	2c	4e]
.	.	.	2a
2BB	2r	2d	.
.	.	.	4g#
=30	=30	=30	=30
4C	4r	4e	2.a
4AA	8A	2a	.
.	8G	.	.
[2D	4F	.	.
.	8E	4g#	4b
.	8D	.	.
=31	=31	=31	=31
4D]	4E	2.a	2.cc
4C	4AA	.	.
[2F	4A	.	.
.	8G	4b	4dd
.	8F	.	.
=32	=32	=32	=32
4F]	4G	1cc	2.ee
4E	4C	.	.
[2A	4c	.	.
.	8B	.	4ff
.	8A	.	.
=33	=33	=33	=33
4A]	8B	4f	4dd
.	8c	.	.
2G	8B	4g	8ee
.	8e	.	8b
.	8A	4e	4cc
.	8B	.	.
[4F	8A	4f	8dd
.	8d	.	8a
=34	=34	=34	=34
4F]	8G	4d	4b
.	8A	.	.
2E	8G	4e	8cc
.	8c	.	8g
.	2F	4c	8a
.	.	.	8cc
[4D	.	4d	8b
.	.	.	8dd
=35	=35	=35	=35
4D]	4E	4B	4g#
4C	2A	4c	4ee
2BBT	.	2d	4dd
.	4G#	.	8cc
.	.	.	8b
=36	=36	=36	=36
2AA	8A	4c	4cc
.	8e	.	.
.	8a	2c	4a
.	8g	.	.
[2A	8f	.	2r
.	8e	.	.
.	8d	8B	.
.	8c	8A	.
=37	=37	=37	=37
4A]	[2B	2e	4r
8G	.	.	4b
8F	.	.	.
4G	4B]	4r	[2ee
4C	8A	4e	.
.	8G	.	.
=38	=38	=38	=38
2.F	2A	2a	4ee]
.	.	.	8dd
.	.	.	8cc
.	2B	[2g	4dd
8E	.	.	4g
8D	.	.	.
=39	=39	=39	=39
4E	2c	4g]	2.cc
4AA	.	8f	.
.	.	8e	.
[2D	2d	2f	.
.	.	.	8b-
.	.	.	8a
=40	=40	=40	=40
4D]	2.G	2.e	4b-
8C	.	.	4e
8BB-	.	.	.
4C	.	.	[2a
4FF	8F	8d	.
.	8E	8c#	.
=41	=41	=41	=41
2.BB-	2.D	2.d	4a]
.	.	.	8g
.	.	.	8f
.	.	.	4g
8AA	8E	4B-	4c#
8GG	8G	.	.
=42	=42	=42	=42
4AA	8C#	2A	2.f
.	8E	.	.
4DD	8D	.	.
.	8F	.	.
[2GG	8BB	4G	.
.	8D	.	.
.	8C#	8A	8e
.	8D	8B-	8d
=43	=43	=43	=43
4GG]	4E	2A	4c#
2FF	8F	.	4d
.	8E	.	.
.	4D	2B	[2g
8EE	8G	.	.
8DD	8F	.	.
=44	=44	=44	=44
4EE	4E	4c#	4g]
4AA	8D	4A	8f
.	8C#	.	8e
4FF	8D	[2d	8f
.	8E	.	8g
4DD	8F	.	8a
.	8D	.	8b
=45	=45	=45	=45
4EE	8G	4d]	2.cc
.	8F	.	.
2AA	8E	4c	.
.	8D	.	.
.	8C	[2f	.
.	8c	.	.
4FF	8B	.	4dd
.	8A	.	.
=46	=46	=46	=46
4GG	8B	4f]	[2ee
.	8A	.	.
2C	8G	4e	.
.	8F	.	.
.	8E	[2a	8ee]
.	8e	.	8gg
4AA	8d	.	8ff
.	8c	.	8ee
=47	=47	=47	=47
8BB	2B	4a]	2dd
8C	.	.	.
8BB	.	2g	.
8E	.	.	.
8AA	4c	.	2cc
8BB	.	.	.
8AA	4A	[4f	.
8D	.	.	.
=48	=48	=48	=48
8GG	2G	4f]	4b
8AA	.	.	.
8GG	.	2e	4ee
8C	.	.	.
2FF	2A	.	8a
.	.	.	8cc
.	.	[4d	8b
.	.	.	8dd
=49	=49	=49	=49
4EE	4B	4d]	4g#
2A	4c	4c	4a
.	2B	4d	4ff
[4G	.	[4e	8ee
.	.	.	8dd
=50	=50	=50	=50
4G]	2A	4e]	4cc#
8F	.	8d	2aa
8E	.	8c#	.
4F	[2d	2a	.
4BB	.	.	8gg
.	.	.	8ff
=51	=51	=51	=51
2.E	4d]	2g	4gg
.	8c	.	4cc
.	8B	.	.
.	4c	[2a	[2ff
8D	4F	.	.
8C	.	.	.
=52	=52	=52	=52
4D	2.B	4a]	4ff]
4GG	.	8g	8ee
.	.	8f	8dd
[2C	.	2e	4ee
.	8A	.	4a
.	8G	.	.
=53	=53	=53	=53
4C]	4A	2.f	2.dd
8BB-	4D	.	.
8AA	.	.	.
4BB-	[2G	.	.
4EE	.	8e	8cc
.	.	8d	8b-
=54	=54	=54	=54
2.AA	4G]	4c	4cc
.	8F	2f	4f
.	8E	.	.
.	4D	.	2b-
[4GG	4B-	8e	.
.	.	8d	.
=55	=55	=55	=55
4GG]	4E	4c#	8a
.	.	.	8b-
2FF	4F	8d	8a
.	.	8c	8dd
.	2G	4B	8g
.	.	.	8a
4EE	.	4c#	8g
.	.	.	8ee
=56	=56	=56	=56
4DD	4A	2d	8f
.	.	.	8g
2D	4F	.	8f
.	.	.	8b-
.	4G	4B-	8e
.	.	.	8f
4C#	4E	4A	8e
.	.	.	8a
=57	=57	=57	=57
2D	2.D	[1A	8f
.	.	.	8e
.	.	.	8d
.	.	.	8e
2AA	.	.	2eT
.	4C#	.	.
=58	=58	=58	=58
2DD	2.D	4A]	4f
.	.	2f	4d
2BB-	.	.	[2g
.	4E	8e	.
.	.	8d	.
=59	=59	=59	=59
2.AA	2.F	2c	4g]
.	.	.	4f
.	.	4d	[2b-
4GG	4G	4e	.
=60	=60	=60	=60
2.FF	[2A	2.f	4b-]
.	.	.	4a
.	8A]	.	[2dd
.	8F	.	.
4GG	8E	4b-	.
.	8D	.	.
=61	=61	=61	=61
2AA	4.A	8e	4dd]
.	.	8f	.
.	.	8e	2cc
.	8G	8a	.
2r	4F	8d	.
.	.	8e	.
.	8G	8d	[4b-
.	8F	8g	.
=62	=62	=62	=62
1r	4E	8c	4b-]
.	.	8d	.
.	8F	8c	2a
.	8E	8f	.
.	8D	2B-	.
.	8F	.	.
.	8E	.	[4g
.	8G	.	.
=63	=63	=63	=63
1r	8C#	4A	4g]
.	8E	.	.
.	8D	2d	4f
.	8F	.	.
.	8GG	.	4.e
.	8BB-	.	.
.	8AA	[4c	.
.	8C	.	8f
=64	=64	=64	=64
1r	8BB-	4c]	4d
.	8D	.	.
.	8GG	4B-	4e
.	8BB-	.	.
.	8AA	4c	4.f
.	8C	.	.
.	8BB	[4d	.
.	8D	.	8g
=65	=65	=65	=65
1r	8C	4d]	4e
.	8E	.	.
.	8AA	4c	4f#
.	8C	.	.
.	8BB	4d	4.g
.	8D	.	.
.	8C#	[4e	.
.	8E	.	8a
=66	=66	=66	=66
1r	8D	4e]	4f#
.	8F#	.	.
.	8BB	4d	4g#
.	8D	.	.
.	8C	4e	4.a
.	8E	.	.
.	8D	4f	.
.	8F	.	8b
=67	=67	=67	=67
1r	8E	4B	4g#
.	8D	.	.
.	8E	4r	2ee
.	8C	.	.
.	8F	[2a	.
.	8A	.	.
.	8D	.	8dd
.	8F	.	8cc
=68	=68	=68	=68
1r	4BB	4a]	4dd
.	2E	8g	4g
.	.	8f	.
.	.	4g	[2cc
.	8D	4c	.
.	8C	.	.
=69	=69	=69	=69
1r	4D	2.f	4cc]
.	4GG	.	8b
.	.	.	8a
.	[2C	.	4b
.	.	8e	4e
.	.	8d	.
=70	=70	=70	=70
1r	4C]	4e	2.a
.	8BB	4A	.
.	8AA	.	.
.	4BB	[2d	.
.	4EE	.	4g#
=71	=71	=71	=71
1r	2AA	8d]	2a
.	.	8B	.
.	.	8c	.
.	.	[8A	.
.	2BB	4A]	2r
.	.	4G#	.
=72	=72	=72	=72
1r	4C	2.A	4r
.	4AA	.	8aa
.	.	.	8gg
.	[2D	.	4ff
.	.	4B	8ee
.	.	.	8dd
=73	=73	=73	=73
1r	4D]	2.c	4ee
.	4C	.	4a
.	[2F	.	4aa
.	.	4d	8gg
.	.	.	8ff
=74	=74	=74	=74
1r	4F]	2.e	4gg
.	4E	.	4g
.	[2A	.	4cc
.	.	4f	8b
.	.	.	8a
=75	=75	=75	=75
1r	4A]	4d	8b
.	.	.	8cc
.	2G	8e	8b
.	.	8B	8ee
.	.	4c	8a
.	.	.	8b
.	[4F	8d	8a
.	.	8A	8dd
=76	=76	=76	=76
1r	4F]	4B	8g
.	.	.	8a
.	2E	8c	8g
.	.	8G	8cc
.	.	8A	2f
.	.	8c	.
.	[4D	8B	.
.	.	8d	.
=77	=77	=77	=77
1r	4D]	4G#	4e
.	4C	2A	4eeT
.	2BB	.	4dd
.	.	4G#	8cc
.	.	.	8b
=78	=78	=78	=78
1r	4AA	4A	2cc
.	2A	4r	.
.	.	2r	[2b-
.	8G	.	.
.	8F	.	.
=79	=79	=79	=79
1r	4G	2.e	4b-]
.	4C	.	8a
.	.	.	8g
.	[2F	.	4a
.	.	8d	4d
.	.	8d	.
=80	=80	=80	=80
1r	4F]	4B	2.g
.	8E	8c#	.
.	8D	8d	.
.	4E	2c#	.
.	4AA	.	8f
.	.	.	8e
=81	=81	=81	=81
2DD	2.D	2d	4f
.	.	.	4B
2EE	.	4G	[2e
.	4C#	8A	.
.	.	8B-	.
=82	=82	=82	=82
4FF	2.D	2A	4e]
4DD	.	.	8d
.	.	.	8c#
[2GG	.	4B-	[2d
.	4E	8A	.
.	.	8G	.
=83	=83	=83	=83
4GG]	2.F	4A	2.d]
4FF	.	4D	.
[2BB-	.	4d	.
.	4G	8c	4e
.	.	8B-	.
=84	=84	=84	=84
4BB-]	2.A	4c	1f
4AA	.	4F	.
[2D	.	4f	.
.	4B-	8e	.
.	.	8d	.
=85	=85	=85	=85
4D]	4G	8e	4b-
.	.	8f	.
2C	8A	8e	4cc
.	8E	8a	.
.	4F	8d	4a
.	.	8e	.
[4BB-	8G	8d	4b-
.	8D	8g	.
=86	=86	=86	=86
4BB-]	4E	8c	4g
.	.	8d	.
2AA	2F	8c	4a
.	.	8f	.
.	.	2B-	8d
.	.	.	8f
[4GG	8G	.	8e
.	8F	.	8g
=87	=87	=87	=87
4GG]	4E	2A	4c#
4FF	2D	.	4a
4EE	.	4B-	4g
4AA	4C#	[4A	8f
.	.	.	8e
=88	=88	=88	=88
2DD	4D	4A]	4f
.	4r	2f	2dd
[2A	2r	.	.
.	.	8e	8cc
.	.	8d	8b
=89	=89	=89	=89
4A]	2.A	4e	4cc
8G	.	2f	4f
8F	.	.	.
4G	.	.	[2b-
4C	8G	[4e	.
.	8F	.	.
=90	=90	=90	=90
2.F	4G	4e]	4b-]
.	4C	8f	8a
.	.	8e	8g
.	[2F	2f	4a
8E	.	.	4d
8D	.	.	.
=91	=91	=91	=91
4E	4F]	4B	2.g
4AA	8E	2c#	.
.	8D	.	.
[2D	4E	.	.
.	4AA	8d	8f
.	.	8c#	8e
=92	=92	=92	=92
4D]	4D	2d	4f
8C	2G	.	4b-
8BB-	.	.	.
4C	.	2c	4e
4FF	8F	.	[4a
.	8E	.	.
=93	=93	=93	=93
2.BB-	8D	2d	4a]
.	8F	.	.
.	8B-	.	8g
.	8A	.	8f
.	8G	2e	[2cc
.	8C	.	.
4AA	8c	.	.
.	8B-	.	.
=94	=94	=94	=94
2.D	8A	2.f	4cc]
.	8D	.	.
.	8d	.	8b
.	8c	.	8a
.	2B	.	[2ff
4GG	.	4g	.
=95	=95	=95	=95
2C	4.c	4a	4ff]
.	.	2g	2ee
.	8B-	.	.
[2F	2A	.	.
.	.	8f	8dd
.	.	8e	8cc
=96	=96	=96	=96
4F]	2B	4d	4dd
8E	.	2g	4g
8D	.	.	.
4E	2c	.	[2cc
4AA	.	8f	.
.	.	8e	.
=97	=97	=97	=97
2.D	2F	4f	4cc]
.	.	4B-	8b-
.	.	.	8a
.	2G	[2e	4b-
8C	.	.	4e
8BB-	.	.	.
=98	=98	=98	=98
4C	2A	4e]	2.a
4FF	.	8d	.
.	.	8c	.
[2BB-	2D	4d	.
.	.	4G	8g
.	.	.	8f
=99	=99	=99	=99
4BB-]	2E	2.c	4g
8AA	.	.	4c
8GG	.	.	.
4AA	2F	.	[2f
4DD	.	8B-	.
.	.	8A	.
=100	=100	=100	=100
2GG	2D	2.B-	4f]
.	.	.	8e
.	.	.	8d
2CC	[2C	.	2e
.	.	8A	.
.	.	8G	.
=101	=101	=101	=101
2FF	4C]	2A	2f
.	2F	.	.
2r	.	2r	2g
.	4E	.	.
=102	=102	=102	=102
2FF	8F	4r	4a
.	8C	.	.
.	2A	2f	4f
2GG	.	.	[2b-
.	8G	8e	.
.	8F	8d	.
=103	=103	=103	=103
4AA	8E	8c	4b-]
.	8G	8e	.
4FF	8F	2a	4a
.	8E	.	.
[2BB-	8D	.	[2dd
.	8F	.	.
.	8B-	8g	.
.	8A	8f	.
=104	=104	=104	=104
4BB-]	4.G	8e	4dd]
.	.	8g	.
4AA	.	2cc	4cc
.	8g	.	.
[2D	8f	.	[2ff
.	8e	.	.
.	8d	8b-	.
.	8c	8a	.
=105	=105	=105	=105
4D]	4.B-	8g	4ff]
.	.	8f	.
4C	.	2g	2ee
.	8B-	.	.
[2F	8A	.	.
.	8B-	.	.
.	8A	4f	[4dd
.	8d	.	.
=106	=106	=106	=106
4F]	8G	2b-	4dd]
.	8A	.	.
2E	8G	.	2cc
.	8c	.	.
.	8F	2a	.
.	8G	.	.
[4D	8F	.	[4b-
.	8B-	.	.
=107	=107	=107	=107
4D]	8E	4.g	4b-]
.	8G	.	.
2C	8F	.	4a
.	8A	[8f	.
.	8D	8f]	2g
.	8F	8d	.
[4BB-	8E	[4c	.
.	8G	.	.
=108	=108	=108	=108
4BB-]	4C	8c]	2.f
.	.	8d	.
4AA	2c	2e-	.
[2D	.	.	.
.	8B-	8d	8g
.	8c	8e-	8a
=109	=109	=109	=109
4D]	2.d	2.f	2.b-
8C	.	.	.
8BB-	.	.	.
[2F	.	.	.
.	8c	8f	8a
.	8B-	8e	8g
=110	=110	=110	=110
4F]	4c	4f	4a
8E	2f	2a	2dd
8D	.	.	.
[2A	.	.	.
.	8e	8a	8cc
.	8d	8g#	8b
=111	=111	=111	=111
4A]	4e	4a	4cc
8G	4A	4dd	2ff
8F	.	.	.
4G	4d	4b	.
4C	8c	[4g	[4ee
.	8B-	.	.
=112	=112	=112	=112
2.F	2.A	4g]	4ee]
.	.	8f	8dd
.	.	8e	8cc
.	.	4f	4dd
8E	8G	4B	4g
8D	8F	.	.
=113	=113	=113	=113
4E	4G	2e	2.cc
4AA	8F	.	.
.	8E	.	.
4D	4F	2d	.
4GG	8G	.	4b
.	8F	.	.
=114	=114	=114	=114
4AA	4E	4c	8cc
.	.	.	8dd
4FF	2c	4a	8cc
.	.	.	8dd
2GG	.	4g	2ddT
.	4B	4f	.
=115	=115	=115	=115
2CC	2c	4e	4cc
.	.	2cc	8aa
.	.	.	8gg
2r	2d	.	4ff
.	.	4b	8ee
.	.	.	8dd
=116	=116	=116	=116
4r	4e	2.cc	4gg
4C	4c	.	8ff
.	.	.	8ee
4AA	[2f	.	[2aa
4FF	.	8dd	.
.	.	8cc	.
=117	=117	=117	=117
4GG	4f]	4b	4aa]
2C	4e	4b-	2gg
.	[2a	4a	.
4AA	.	[4cc	8ff
.	.	.	8ee
=118	=118	=118	=118
4BB	4a]	4cc]	4dd
2E	4g	4b	2bb
.	[2cc	2ee	.
4C	.	.	8aa
.	.	.	8gg
=119	=119	=119	=119
8D	4cc]	2dd	4ff#
8E	.	.	.
8D	2b	.	4ff
8G	.	.	.
8C	.	2cc	4ee
8D	.	.	.
8C	[4a	.	4ee-
8F	.	.	.
=120	=120	=120	=120
8BB	4a]	2b	4dd
8C	.	.	.
8BB	2g	.	4gg
8E	.	.	.
8AA	.	2a	4cc
8BB	.	.	.
8AA	[4f	.	4ff
8D	.	.	.
=121	=121	=121	=121
4GG	4f]	2g	4b
2C	4e	.	4cc
.	2d	4f	4dd
[4BB-	.	[4g	8ee
.	.	.	8ff
=122	=122	=122	=122
4BB-]	2c	4g]	4ee
2AA	.	8f	4ff
.	.	8e	.
.	4F	4d	[2b-
4GG	4G	4e	.
=123	=123	=123	=123
4FF	8A	4.f	4b-]
.	8B-	.	.
4F	2c	.	2a
.	.	8e-	.
[2BB-	.	2d	.
.	8B-	.	8g
.	8A	.	8f
=124	=124	=124	=124
4BB-]	4G	4e	2.cc
4AA	4A	4f#	.
4GG	8B-	4.g	.
.	8c	.	.
[4G	4d	.	4b-
.	.	8f	.
=125	=125	=125	=125
4G]	4c	4e-	4a
8F	2d	4f	4dd
8E-	.	.	.
4F	.	[2b-	[2gg
4BB-	8c	.	.
.	8B-	.	.
=126	=126	=126	=126
2.E-	4c	4b-]	4gg]
.	4F	8a-	8ff
.	.	8g	8ee-
.	[2B-	2a-	4ff
8D	.	.	4b-
8C	.	.	.
=127	=127	=127	=127
4D	4B-]	2.g	2.ee-
4GG	8A	.	.
.	8G	.	.
[2C	4A	.	.
.	4D	8f#	8dd
.	.	8a	8cc
=128	=128	=128	=128
4C]	2.G	2d	4dd
2BB-	.	.	4g
.	.	4e	[2cc
4AA	4F#	4a	.
=129	=129	=129	=129
4GG	4G	4d	4cc]
4CC	2e-	2g	8b-
.	.	.	8a
2DD	.	.	2aT
.	8d	4f#	.
.	8c	.	.
=130	=130	=130	=130
2GG	2B-	2g	4g
.	.	.	2gg
2r	4c	2a	.
.	4d	.	4ff#
=131	=131	=131	=131
1r	2G	4b-	2.gg
.	.	4g	.
.	2A	[2cc	.
.	.	.	8ff
.	.	.	8ee-
=132	=132	=132	=132
1r	4B-	4cc]	[2dd
.	4G	4b-	.
.	[2c	[2ee-	8dd]
.	.	.	8g
.	.	.	8a
.	.	.	8cc
=133	=133	=133	=133
1r	4c]	4ee-]	4f#
.	4B-	4dd	[4g
.	[2e-	[2gg	8g]
.	.	.	8f#
.	.	.	8g
.	.	.	8a
=134	=134	=134	=134
1r	4e-]	4gg]	8b-
.	.	.	8cc
.	4d	2ff	8dd
.	.	.	8cc
.	[2g	.	8b-
.	.	.	8dd
.	.	[4ee-	8ee-
.	.	.	8b-
=135	=135	=135	=135
1r	4g]	4ee-]	8cc
.	.	.	8a
.	2f	2dd	8dd
.	.	.	8a
.	.	.	8b-
.	.	.	8g
.	[4e-	[4cc	8cc
.	.	.	8g
=136	=136	=136	=136
1r	4e-]	4cc]	8a
.	.	.	8f
.	2d	2b-	8b-
.	.	.	8dd
.	.	.	8ee-
.	.	.	8dd
.	[4c	8a	8ee-
.	.	8g	8cc
=137	=137	=137	=137
1r	4c]	4f#	8dd
.	.	.	8ee-
.	4B-	2g	8dd
.	.	.	8gg
.	2A	.	8cc
.	.	.	8b-
.	.	4f#	8cc
.	.	.	8a
=138	=138	=138	=138
1r	2G	2g	4b-
.	.	.	2gg
.	[2d	2r	.
.	.	.	8ff
.	.	.	8ee
=139	=139	=139	=139
1r	4d]	2.dd	4ff
.	8c	.	4b-
.	8B-	.	.
.	4c	.	[2ee-
.	4F	8cc	.
.	.	8b-	.
=140	=140	=140	=140
1r	2.B-	4cc	4ee-]
.	.	4f	8dd
.	.	.	8cc
.	.	[2b-	4dd
.	8A	.	4g
.	8G	.	.
=141	=141	=141	=141
1r	4A	4b-]	2.cc
.	4D	8a	.
.	.	8g	.
.	[2G	4a	.
.	.	4d	8b-
.	.	.	8a
=142	=142	=142	=142
1r	4G]	2.g	4b-
.	8F	.	4e-
.	8E-	.	.
.	4F	.	[2a-
.	4BB-	8f	.
.	.	8e-	.
=143	=143	=143	=143
1r	2.E-	4f	4a-]
.	.	4B-	8g
.	.	.	8f
.	.	2e-	4g
.	8D	.	[4cc
.	8C	.	.
=144	=144	=144	=144
1r	4D	4f	4cc]
.	4GG	[4b-	4b-
.	4C	8b-]	[2ee-
.	.	8b-	.
.	4FF	8a	.
.	.	8g	.
=145	=145	=145	=145
1r	4BB-	4f	8ee-]
.	.	.	8dd
.	4EE-	[4g	8cc
.	.	.	8b-
.	2FF	8g]	2a
.	.	8g	.
.	.	8f	.
.	.	8e-	.
=146	=146	=146	=146
1r	2BB-	4d	4b-
.	.	4dd	2ff
.	2C	8g	.
.	.	8a	.
.	.	8g	[4ee-
.	.	8cc	.
=147	=147	=147	=147
1r	4D	8f	4ee-]
.	.	8g	.
.	4BB-	8f	2dd
.	.	8b-	.
.	[2E-	2g	.
.	.	.	8cc
.	.	.	8b-
=148	=148	=148	=148
1r	4E-]	4c	4a
.	4D	8B-	2ff
.	.	8A	.
.	[2G	2B-	.
.	.	.	8ee-
.	.	.	8dd
=149	=149	=149	=149
1r	4G]	4e-	4cc
.	4F	8d	2aa
.	.	8c	.
.	[2B-	2d	.
.	.	.	8gg
.	.	.	8ff
=150	=150	=150	=150
1r	4B-]	8c	4ee
.	.	8d	.
.	2A-	8c	8ff
.	.	8f	8cc
.	.	8B-	4dd
.	.	8c	.
.	[4G	8B-	8ee-
.	.	8e-	8b-
=151	=151	=151	=151
1r	4G]	8A	4cc
.	.	8B-	.
.	2F	8A	8dd
.	.	8d	8a
.	.	8G	4b-
.	.	8A	.
.	[4E-	8G	8cc
.	.	8c	8g
=152	=152	=152	=152
1r	4E-]	2F	4a
.	4D	.	2b-
.	4E-	[2c	.
.	4E	.	8a-
.	.	.	8g
=153	=153	=153	=153
1r	[1F	8c]	4a-
.	.	8g	.
.	.	8f	4a
.	.	8e-	.
.	.	8d	4b-
.	.	8c	.
.	.	8B	4b
.	.	8A	.
=154	=154	=154	=154
1r	4F]	2G	2.cc
.	4E	.	.
.	4F	[2d	.
.	4F#	.	8b-
.	.	.	8a
=155	=155	=155	=155
1r	[1G	8d]	4b-
.	.	8a	.
.	.	8g	4b
.	.	8f	.
.	.	8e	4cc
.	.	8d	.
.	.	8c#	4cc#
.	.	8B	.
=156	=156	=156	=156
1r	4G]	2A	2.dd
.	4F	.	.
.	[2B-	4r	.
.	.	4f	8cc
.	.	.	8b-
=157	=157	=157	=157
1r	4B-]	4e	4cc
.	8A	4e-	4f
.	8G	.	.
.	4A	[2d	[2b-
.	4D	.	.
=158	=158	=158	=158
1r	2.G	4d]	4b-]
.	.	4d	8a
.	.	.	8g
.	.	4c#	4a
.	8F#	4c	4d
.	8E	.	.
=159	=159	=159	=159
1r	4F	4B	2.g
.	4BB	8c#	.
.	.	8d	.
.	[2E	2c#	.
.	.	.	8f
.	.	.	8e
=160	=160	=160	=160
1r	4E]	2d	[2f
.	8D	.	.
.	8C#	.	.
.	8D	2r	8f]
.	8C	.	8f#
.	8BB-	.	8g
.	8AA	.	8a
=161	=161	=161	=161
1r	8GG	1r	8b-
.	8A	.	8b
.	8G	.	8cc
.	8F	.	8dd
.	8E	.	8cc#
.	8F	.	8dd
.	8E	.	4ddT
.	8D	.	.
=162	=162	=162	=162
1r	4C#	1r	4ee
.	8D	.	4a
.	8E	.	.
.	8F	.	[2aa
.	8G	.	.
.	8A	.	.
.	8F	.	.
=163	=163	=163	=163
1r	2.B-	1r	4aa]
.	.	.	8gg
.	.	.	8ff
.	.	.	4gg
.	8A	.	4cc
.	8G	.	.
=164	=164	=164	=164
1r	4A	2.a	2.ff
.	4D	.	.
.	[2G	.	.
.	.	8g	8ee
.	.	8f	8dd
=165	=165	=165	=165
1r	4G]	4g	4ee
.	8F	4c#	4a
.	8E	.	.
.	4F	2f	[2dd
.	4B-	.	.
=166	=166	=166	=166
1r	4G	2.e	4dd]
.	4E	.	8cc#
.	.	.	8b
.	4A	.	2cc#
.	4AA	8f	.
.	.	8g	.
=167	=167	=167	=167
2DD	2D	4f	4dd
.	.	2d	8dd
.	.	.	8cc
2EE	2r	.	4b-
.	.	4c#	8a
.	.	.	8g
=168	=168	=168	=168
4FF	4D	2d	4f
4DD	8d	.	8b-
.	8c	.	8a
[2GG	4B-	2e	4g
.	8A	.	8f
.	8G	.	8e
=169	=169	=169	=169
4GG]	4A	4f	4d
4FF	4A	4d	2ff
[2BB-	2d	[2g	.
.	.	.	8ee
.	.	.	8dd
=170	=170	=170	=170
4BB-]	4e	4g]	4cc#
4AA	8d	4f	2aa
.	8c#	.	.
[2D	2d	[2b-	.
.	.	.	8gg
.	.	.	8ff
=171	=171	=171	=171
4D]	4g	4b-]	2ee
2C	8f	4a	.
.	8e	.	.
.	4f	[2dd	8r
.	.	.	8aa
[4BB-	8b-	.	8gg
.	8a	.	8ff
=172	=172	=172	=172
4BB-]	8g	4dd]	8ee
.	8e	.	8gg
2AA	8a	2cc	8ff
.	8g	.	8ee
.	8f	.	8dd
.	8d	.	8ff
[4GG	8g	[4b-	8ee
.	8f	.	8dd
=173	=173	=173	=173
4GG]	8e	4b-]	8cc#
.	8c#	.	8ee
4FF	8f	2a	8dd
.	8d	.	8ff
2EE	8e	.	8b
.	8d	.	8dd
.	8e	[4g	8cc#
.	8c#	.	8ee
=174	=174	=174	=174
4DD	8d	4g]	4a
.	8c#	.	.
4FF	8d	4f	2dd
.	8A	.	.
4GG	4B-	2e	.
4AA	8A	.	4cc#
.	8G	.	.
=175	=175	=175	=175
2BB-	4F	8d	4dd
.	.	8f	.
.	4G	8e	4r
.	.	8g	.
4AA	4C	8f	2r
.	.	8g	.
4BB	[4G	8d	.
.	.	8f	.
=176	=176	=176	=176
2C	4G]	8e	1r
.	.	8g	.
.	4A	8f#	.
.	.	8a	.
4BB	4D	8g	.
.	.	8a	.
4C#	[4A	8e	.
.	.	8g	.
=177	=177	=177	=177
2D	4A]	8f#	1r
.	.	8a	.
.	4B	8g#	.
.	.	8b	.
4C#	4E	8a	.
.	.	8b	.
4D#	[4B	8f#	.
.	.	8a	.
=178	=178	=178	=178
8E	2B]	4g#	1r
8F	.	.	.
8E	.	2ee	.
8F	.	.	.
8E	2r	.	.
8F	.	.	.
8E	.	8dd	.
8F	.	8cc	.
=179	=179	=179	=179
[1ET	4r	4dd	1r
.	2e	4g#	.
.	.	[2cc	.
.	8d	.	.
.	8c	.	.
=180	=180	=180	=180
1E_	4d	4cc]	1r
.	4G#	8b	.
.	.	8a	.
.	[2c	4b	.
.	.	4e	.
=181	=181	=181	=181
1E_	4c]	[2a	1r
.	8B	.	.
.	8A	.	.
.	4B	8a]	.
.	.	8f#	.
.	4E	8g#	.
.	.	8e	.
=182	=182	=182	=182
1E_	[2A	8cc	1r
.	.	8b	.
.	.	8cc	.
.	.	8a	.
.	8A]	[2ee	.
.	8F#	.	.
.	8G#	.	.
.	8E	.	.
=183	=183	=183	=183
1E_	8c	8ee]	4r
.	8B	8dd	.
.	8c	8ee	2aa
.	8A	8cc	.
.	[2e	[2b	.
.	.	.	8gg
.	.	.	8ff
=184	=184	=184	=184
2.E]	4.e]	8b]	4gg
.	.	8a	.
.	.	4g	4cc
.	8d	.	.
.	[2c	[2a	[2ff
8D	.	.	.
8C	.	.	.
=185	=185	=185	=185
4D	4c]	4a]	4ff]
4GG	4B	4.g	8ee
.	.	.	8dd
[2C	4.c	.	4ee
.	.	8f	.
.	.	4e	4a
.	8B	.	.
=186	=186	=186	=186
4C]	2.A	2.f	2.dd
8BB	.	.	.
8AA	.	.	.
4BB	.	.	.
4EE	4G#	[4e	8cc
.	.	.	8b
=187	=187	=187	=187
4AA	4A	4e]	8cc
.	.	.	8b
4C	4e	[4a	8a
.	.	.	8b
4D	4f	4a]	2bT
4E	8e	4g#	.
.	8d	.	.
=188	=188	=188	=188
2AA	8c	8a	2a
.	8B	8g	.
.	2A	8f	.
.	.	8e	.
2r	.	8d	2b
.	.	8f	.
.	4G#	8e	.
.	.	8d	.
=189	=189	=189	=189
1r	4A	8c	4cc
.	.	8d	.
.	8A	8c	4a
.	8G	8B	.
.	4F	8A	[2dd
.	.	8a	.
.	8E	8g	.
.	8D	8f	.
=190	=190	=190	=190
1r	4E	8g	4dd]
.	.	8b-	.
.	4AA	8a	4cc
.	.	8g	.
.	4A	8f	[2ff
.	.	8cc	.
.	8G	8b	.
.	8F	8a	.
=191	=191	=191	=191
1r	4G	8b	4ff]
.	.	8dd	.
.	4C	8cc	4ee
.	.	8b	.
.	4c	8a	[2aa
.	.	8ee	.
.	8B	8dd	.
.	8A	8cc	.
=192	=192	=192	=192
1r	8B	8dd	4aa]
.	8c	8cc	.
.	8B	8dd	2gg
.	8e	8g	.
.	8A	8cc	.
.	8B	8b	.
.	8A	8cc	[4ff
.	8d	8f	.
=193	=193	=193	=193
1r	8G	8b	4ff]
.	8A	8a	.
.	8G	8b	2ee
.	8c	8e	.
.	2F	8a	.
.	.	8g#	.
.	.	8a	[4dd
.	.	8b	.
=194	=194	=194	=194
1r	4E	4g#	4dd]
.	8F	2a	4cc
.	8E	.	.
.	8D	.	4b
.	8F	.	.
.	8E	[4g	4b-
.	8D	.	.
=195	=195	=195	=195
1r	4C#	8g]	2.a
.	.	8g	.
.	4C	8f	.
.	.	8e	.
.	4BB	8d	.
.	.	8f	.
.	4BB-	8e	[4g
.	.	8d	.
=196	=196	=196	=196
1r	4AA	4c#	8g]
.	.	.	8gg
.	2A	4c	8ff
.	.	.	8ee
.	.	4B	8dd
.	.	.	8ff
.	[4G	4B-	8ee
.	.	.	8dd
=197	=197	=197	=197
1r	8G]	8A	2cc#
.	8B-	8e	.
.	8A	8f	.
.	8G	8g	.
.	8F	[2a	8r
.	8G	.	8cc#
.	8F	.	8dd
.	8E	.	8ee
=198	=198	=198	=198
1r	8D	8a]	8ff
.	8G	8c#	8r
.	8F	8d	4r
.	8E	8e	.
.	8D	[2f	8r
.	8E-	.	8a
.	8D	.	8b-
.	8C	.	8cc
=199	=199	=199	=199
1r	8BB-	8f]	8dd
.	8E-	8A	8r
.	8D	8B-	4r
.	8C	8c	.
.	8BB-	[2d	8r
.	8C	.	8f#
.	8BB-	.	8g
.	8AA	.	8a
=200	=200	=200	=200
1r	8GG	8d]	8b-
.	8F#	8a	8r
.	8G	8b-	4r
.	8A	8a	.
.	8B-	8g	2r
.	8B	8f	.
.	8c#	8e	.
.	8d	8d	.
=201	=201	=201	=201
1r	8c#	2e	8r
.	8B	.	8a
.	8A	.	8b
.	8G	.	8cc#
.	8F	2a	8dd
.	8E	.	8ee
.	8D	.	8ff
.	8C	.	8ff#
=202	=202	=202	=202
1r	8BB-	4g	8gg
.	8B-	.	8cc#
.	8A	4f	8dd
.	8G	.	8ee
.	4A	2e	2cc#T
.	4AA	.	.
=203	=203	=203	=203
1r	4D	4d	4dd
.	4F	2d	8d
.	.	.	8e
.	4G	.	2eT
.	4A	4c#	.
=204	=204	=204	=204
2DD	4D	8d	4f
.	.	8c	.
.	2D	8B-	4d
.	.	8A	.
2EE	.	4G	[2g
.	4C#	8A	.
.	.	8B-	.
=205	=205	=205	=205
4FF	8D	8A	4g]
.	8A	8c#	.
4DD	8d	2f	4f
.	8c	.	.
[2GG	8B-	.	[2b-
.	8A	.	.
.	8G	8e	.
.	8F	8d	.
=206	=206	=206	=206
4GG]	4E	4c#	4b-]
4FF	8F	8d	4a
.	8E	8e	.
[2BB-	8D	8f	[2dd
.	8E	8g	.
.	8F	8a	.
.	8D	8b-	.
=207	=207	=207	=207
4BB-]	4.G	4e	4dd]
4AA	.	2a	2cc
.	8G	.	.
[2D	8F	.	.
.	8G	.	.
.	8F	8b-	[4b-
.	8B-	8f	.
=208	=208	=208	=208
4D]	8E	4g	4b-]
.	8F	.	.
2C	8E	8a	2a
.	8A	8e	.
.	8D	4f	.
.	8E	.	.
[4BB-	8D	8g	[4g
.	8G	8d	.
=209	=209	=209	=209
4BB-]	2C	8e	4g]
.	.	8c	.
2AA	.	8f	4f
.	.	8c	.
.	4F	8d	2b-
.	.	8f	.
[4GG	8G	8e	.
.	8F	8g	.
=210	=210	=210	=210
4GG]	4E	4c#	4a
4FF	4F	4a	2dd
4EE	4G	4g	.
4AA	[4A	8f	4cc#
.	.	8e	.
=211	=211	=211	=211
2DD	4A]	2f	2dd
.	2d	.	.
[2A	.	2r	2r
.	8c	.	.
.	8B-	.	.
=212	=212	=212	=212
4A]	4c	2.a	2.ff
8G	4F	.	.
8F	.	.	.
4G	[2B-	.	.
4C	.	8g	8ee
.	.	8f	8dd
=213	=213	=213	=213
2.F	4B-]	4g	4ee
.	8A	4c#	4a
.	8G	.	.
.	4A	[2f	[2dd
8E	4D	.	.
8D	.	.	.
=214	=214	=214	=214
4E	2.G	4f]	4dd]
4AA	.	8e	8cc
.	.	8d	8b-
[2D	.	4e	4cc
.	8F	4A	4f
.	8E	.	.
=215	=215	=215	=215
4D]	4F	2.d	2.b-
8C	4BB-	.	.
8BB-	.	.	.
4C	[2E-	.	.
4FF	.	8c	8a
.	.	8B-	8g
=216	=216	=216	=216
2.BB-	4E-]	4c	4a
.	8D	4F#	4d
.	8C#	.	.
.	8D	[2B-	[2g
.	8C#	.	.
8AA	8D	.	.
8GG	8E	.	.
=217	=217	=217	=217
4AA	4C#	4B-]	4g]
4DD	4C	8A	8f
.	.	8G	8e
[2GG	4BB	4A	4f
.	4B-	8G	8e
.	.	8F	8d
=218	=218	=218	=218
4GG]	4.A	4E	4c#
4FF	.	4D	2a
.	8G	.	.
2BB-	4F	2d	.
.	8E	.	[4g
.	8D	.	.
=219	=219	=219	=219
[1AA	2.A	4c#	4g]
.	.	4d	4aa 4dd 4b 4f
.	.	4c#	4gg 4ee 4cc# 4e
.	4c# 4G 4E	4r	4r
=220	=220	=220	=220
1AA_	4d 4A 4F	4r	4r
.	4r	4r	4ff 4dd 4a
.	4r	4r	4ee 4cc# 4g
.	4e 4c# 4G	4r	4r
=221	=221	=221	=221
1AA]	4f 4d 4A	4r	4r
.	4r	4r	4dd 4a 4f
.	2A 2E 2AA	4r	4r
.	.	4e	4cc# 4a 4g
=222	=222	=222	=222
1DD	1A 1F# 1D	1d	1dd 1a 1f#
==	==	==	==
*-	*-	*-	*-
!!!ENC: Peter van Kranenburg (peter@musical-style-recognition.net)
!!!END: 2006-11-9
